!!! OTL: Berkowitz235
!!! Chapter: 1
!!! Section: II
!!! Page: 54
!!! Mode: 
!!! Encoder: DJB
**kern
*staff1
*I"Piano
=1-
*clefG2
*k[]
*C:
*met(c|)
*M2/2
4g/
4c/
8.c/L
16B/Jk
4c/
=2
8.d/L
16e/Jk
4f/
4e/
4d/
=3
4r
4g/
8.c/L
16B/Jk
4c/
=4
8.d/L
16e/Jk
4f/
4e/
4r
=5
4r
[4a/
8.a/L]
16b/Jk
4cc\
=6
4r
[4g/
8.g/L]
16b/Jk
4cc\
=7
[2f/
8.f/L]
16b/Jk
4cc\
=8
!!linebreak:original
4r
4e/
4b\
4cc\
=9
4r
[4d/
8.d/L]
16e/Jk
4f/
=10
1g
=11
4r
8.b/L
16a/Jk
8.g/L
16f/K
8.e/
16d/Jk
=12
4r
4c/
8.c/L
16B/Jk
4c/
=13
4cc\
4r
2r
==
*-
